X: 13060
T: Finnegan's Wake
R: reel
M: 4/4
K: Cmajor
G2|EEE2 E2D2|E2A2 A2B2|ccB2 A2G2|E2D2 D2z2|
E2EE E2D2|E2A2 A2AB|c2BB A2G2|AAB2 c2zc|
c2cc c2dd|c2B2 A2GG|c2cc c2d2|c2B2 A2zG|
c2c2 c2dd|c2B2 A2GG|A2AG A2G2|A2B2 c3z|
E2EE E2D2|E2AA A2B2|c3B A2G2|ED3 D4|
E3E E2D2|E2A2 A2B2|c3B A2G2|AAB2 c4||

